X: 38249
T: Squirrel's Nest, The
R: jig
M: 6/8
K: Gmajor
|:Bdd dBA|Bdd d2A|Bee efe|fed e2f|
gfg edB|BAB GED|BAB GED|EGG G2A:|
|:BAB GED|EGG G2A|B3 GED|EAA ABc|
BB2 GED|EGG GBc|dBe dBA|BGG G3:|

